X:1
T:Title
L:1/8
M:8/4
K:F
V:1 treble nm="Choir Aahs"
V:1
 F4 c2 c2 d2 e2 f4 | f4 e2 d2 c2 =B2 c4 |[M:10/4] A4 A2 F2 B2 A2 G2 G2 F4 | %3
[M:8/4] c4 c2 d2 c2 B2 A4 | A4 c2 c2 B2 A2 G4 |[M:10/4] A4 B2 A2 F2 A2 G2 G2 F4 | %6
[M:8/4] F4 F2 G2 A2 B2 c4 | c4 d2 e2 f2 d2 c4 |[M:10/4] c4 c2 c2 d2 c2 B2 B2 A4 | %9
[M:8/4] F4 A2 c2 c2 =B2 c4 | c4 d2 f2 f2 e2 f4 |[M:10/4] f4 d2 c2 B2 A2 G2 G2 F4 |] %12

